symbols/web/extension/materialsymbolsoutlined/extension_wght100grad200_40px.svg

<svg xmlns="http://www.w3.org/2000/svg" height="40" width="40"><path d="M14.625 33.875H7.833q-.666 0-1.187-.521t-.521-1.187v-6.459q1.333-.583 2.104-1.875Q9 22.542 9 21.042q0-1.542-.771-2.813-.771-1.271-2.104-1.854V9.833q0-.666.521-1.187t1.187-.521h6.542q.667-1.5 1.896-2.375Q17.5 4.875 19 4.875q1.458 0 2.708.896 1.25.896 1.917 2.354h6.542q.666 0 1.187.521t.521 1.187v6.542q1.5.667 2.354 1.917.854 1.25.854 2.75t-.875 2.708q-.875 1.208-2.333 1.875v6.542q0 .666-.521 1.187t-1.187.521h-6.875q-.459-1.542-1.667-2.479-1.208-.938-2.667-.938-1.458 0-2.666.938-1.209.937-1.667 2.479Zm-6.792-1.708H13.5q.625-1.292 1.958-2.375 1.334-1.084 3.5-1.084 2.209 0 3.563 1.084 1.354 1.083 1.979 2.375h5.667V24.5h.125q1.583-.25 2.333-1.271.75-1.021.75-2.187 0-1.167-.75-2.188-.75-1.021-2.333-1.271h-.125v-7.75h-7.75v-.166q-.25-1.584-1.25-2.313-1-.729-2.167-.729-1.208 0-2.208.729-1 .729-1.25 2.313v.166H7.833v5.542q1.375 1.042 2.125 2.521.75 1.479.75 3.146 0 1.666-.75 3.146-.75 1.479-2.125 2.437Zm12.792-12.792Z"/></svg>

<svg xmlns="http://www.w3.org/2000/svg" height="40" width="40"><path d="M14.625 33.875H7.833Q7.167 33.875 6.646 33.354Q6.125 32.833 6.125 32.167V25.708Q7.458 25.125 8.229 23.833Q9 22.542 9 21.042Q9 19.5 8.229 18.229Q7.458 16.958 6.125 16.375V9.833Q6.125 9.167 6.646 8.646Q7.167 8.125 7.833 8.125H14.375Q15.042 6.625 16.271 5.75Q17.5 4.875 19 4.875Q20.458 4.875 21.708 5.771Q22.958 6.667 23.625 8.125H30.167Q30.833 8.125 31.354 8.646Q31.875 9.167 31.875 9.833V16.375Q33.375 17.042 34.229 18.292Q35.083 19.542 35.083 21.042Q35.083 22.542 34.208 23.75Q33.333 24.958 31.875 25.625V32.167Q31.875 32.833 31.354 33.354Q30.833 33.875 30.167 33.875H23.292Q22.833 32.333 21.625 31.396Q20.417 30.458 18.958 30.458Q17.5 30.458 16.292 31.396Q15.083 32.333 14.625 33.875ZM7.833 32.167H13.5Q14.125 30.875 15.458 29.792Q16.792 28.708 18.958 28.708Q21.167 28.708 22.521 29.792Q23.875 30.875 24.5 32.167H30.167V24.5H30.292Q31.875 24.25 32.625 23.229Q33.375 22.208 33.375 21.042Q33.375 19.875 32.625 18.854Q31.875 17.833 30.292 17.583H30.167V9.833H22.417V9.667Q22.167 8.083 21.167 7.354Q20.167 6.625 19 6.625Q17.792 6.625 16.792 7.354Q15.792 8.083 15.542 9.667V9.833H7.833V15.375Q9.208 16.417 9.958 17.896Q10.708 19.375 10.708 21.042Q10.708 22.708 9.958 24.188Q9.208 25.667 7.833 26.625ZM20.625 19.375Q20.625 19.375 20.625 19.375Q20.625 19.375 20.625 19.375Q20.625 19.375 20.625 19.375Q20.625 19.375 20.625 19.375Q20.625 19.375 20.625 19.375Q20.625 19.375 20.625 19.375Q20.625 19.375 20.625 19.375Q20.625 19.375 20.625 19.375Q20.625 19.375 20.625 19.375Q20.625 19.375 20.625 19.375Q20.625 19.375 20.625 19.375Q20.625 19.375 20.625 19.375Q20.625 19.375 20.625 19.375Q20.625 19.375 20.625 19.375Q20.625 19.375 20.625 19.375Q20.625 19.375 20.625 19.375Z"/></svg>
